img/gravel-terrain.svg

<svg width="100" height="40" viewBox="0 0 100 40" fill="none" xmlns="http://www.w3.org/2000/svg">
<path d="M0 0H93.5279C96.5014 0 98.4354 3.12925 97.1056 5.78885L81.1056 37.7889C80.428 39.144 79.043 40 77.5279 40H0V0Z" fill="#24B47E"/>
<path d="M16 28L27.443 24.039C28.4403 23.6937 29.5337 23.7567 30.4849 24.2141L37.1707 27.4292C37.9417 27.7999 38.8112 27.9137 39.6517 27.7539L50.7876 25.6355C51.2587 25.5459 51.7421 25.5417 52.2147 25.6232L66 28" stroke="white" stroke-width="2"/>
</svg>

<svg width="100" height="40" fill="none" xmlns="http://www.w3.org/2000/svg"><path d="M0 0h93.528c2.973 0 4.907 3.13 3.578 5.789l-16 32A4 4 0 0 1 77.528 40H0V0Z" fill="#24B47E"/><path d="m16 28 11.443-3.961a4 4 0 0 1 3.042.175l6.686 3.215a4 4 0 0 0 2.48.325l11.137-2.119a4 4 0 0 1 1.427-.012L66 28" stroke="#fff" stroke-width="2"/></svg>
